icons/svg/topo/topo_cabin.svg

<?xml version="1.0" encoding="UTF-8" standalone="no"?>
<!-- Created with Inkscape (http://www.inkscape.org/) -->

<svg
   xmlns:dc="http://purl.org/dc/elements/1.1/"
   xmlns:cc="http://creativecommons.org/ns#"
   xmlns:rdf="http://www.w3.org/1999/02/22-rdf-syntax-ns#"
   xmlns:svg="http://www.w3.org/2000/svg"
   xmlns="http://www.w3.org/2000/svg"
   xmlns:sodipodi="http://sodipodi.sourceforge.net/DTD/sodipodi-0.dtd"
   xmlns:inkscape="http://www.inkscape.org/namespaces/inkscape"
   version="1.0"
   width="580"
   height="580"
   id="svg2"
   sodipodi:version="0.32"
   inkscape:version="0.48.4 r9939"
   sodipodi:docname="alpinehut.svg"
   inkscape:output_extension="org.inkscape.output.svg.inkscape">
  <metadata
     id="metadata2975">
    <rdf:RDF>
      <cc:Work
         rdf:about="">
        <dc:format>image/svg+xml</dc:format>
        <dc:type
           rdf:resource="http://purl.org/dc/dcmitype/StillImage" />
        <cc:license
           rdf:resource="http://web.resource.org/cc/PublicDomain" />
        <dc:language>en</dc:language>
        <dc:title></dc:title>
      </cc:Work>
    </rdf:RDF>
  </metadata>
  <sodipodi:namedview
     inkscape:window-height="1004"
     inkscape:window-width="1920"
     inkscape:pageshadow="2"
     inkscape:pageopacity="0.0"
     guidetolerance="10.0"
     gridtolerance="10.0"
     objecttolerance="10.0"
     borderopacity="1.0"
     bordercolor="#666666"
     pagecolor="#ffffff"
     id="base"
     inkscape:zoom="0.92167712"
     inkscape:cx="421.26388"
     inkscape:cy="184.75888"
     inkscape:window-x="1680"
     inkscape:window-y="0"
     inkscape:current-layer="svg2"
     showgrid="false"
     inkscape:window-maximized="1" />
  <defs
     id="defs4">
    <inkscape:perspective
       sodipodi:type="inkscape:persp3d"
       inkscape:vp_x="0 : 290 : 1"
       inkscape:vp_y="0 : 1000 : 0"
       inkscape:vp_z="580 : 290 : 1"
       inkscape:persp3d-origin="290 : 193.33333 : 1"
       id="perspective2441" />
    <inkscape:perspective
       id="perspective3452"
       inkscape:persp3d-origin="30 : 20 : 1"
       inkscape:vp_z="60 : 30 : 1"
       inkscape:vp_y="0 : 1000 : 0"
       inkscape:vp_x="0 : 30 : 1"
       sodipodi:type="inkscape:persp3d" />
    <symbol
       viewBox="244.5 110 489 219.9"
       id="symbol-university">
      <path
         id="path4460"
         d="M79,43l57,119c0,0,21-96,104-96s124,106,124,106l43-133l82-17L0,17L79,43z" />
      <path
         id="path4462"
         d="M94,176l-21,39"
         stroke-width="20"
         stroke="#000000"
         fill="none" />
      <path
         id="path4464"
         d="M300,19c0,10.5-22.6,19-50.5,19S199,29.5,199,19s22.6-19,50.5-19S300,8.5,300,19z" />
      <path
         id="path4466"
         d="M112,216l-16-38L64,88c0,0-9-8-4-35s16-24,16-24"
         stroke-width="20"
         stroke="#000000"
         fill="none" />
    </symbol>
    <inkscape:perspective
       id="perspective4471"
       inkscape:persp3d-origin="372.04724 : 350.78739 : 1"
       inkscape:vp_z="744.09448 : 526.18109 : 1"
       inkscape:vp_y="0 : 1000 : 0"
       inkscape:vp_x="0 : 526.18109 : 1"
       sodipodi:type="inkscape:persp3d" />
    <inkscape:perspective
       id="perspective4668"
       inkscape:persp3d-origin="6 : 4 : 1"
       inkscape:vp_z="12 : 6 : 1"
       inkscape:vp_y="0 : 1000 : 0"
       inkscape:vp_x="0 : 6 : 1"
       sodipodi:type="inkscape:persp3d" />
  </defs>
  <g
     id="g1327">
    <path
       d="M 66.275,1.768 C 24.94,1.768 1.704,23.139 1.704,66.804 L 1.704,516.927 C 1.704,557.771 22.599,579.156 63.896,579.156 L 515.92,579.156 C 557.227,579.156 578.149,558.841 578.149,516.927 L 578.149,66.804 C 578.149,24.203 557.227,1.768 514.628,1.768 C 514.624,1.768 66.133,1.625 66.275,1.768 z"
       style="fill:#111111;stroke:#eeeeee;stroke-width:3.40799999"
       id="path1329" />
  </g>
  <path
     inkscape:connector-curvature="0"
     style="text-indent:0;text-align:start;line-height:normal;text-transform:none;block-progression:tb;fill:#ffffff;fill-opacity:1;-inkscape-font-specification:Bitstream Vera Sans"
     d="m 287.1142,50.246375 c -6.27112,0.678152 -12.27927,3.57864 -16.71083,8.067299 L 60.07755,268.6395 c -5.132459,5.12844 -8.121523,12.33868 -8.12294,19.59424 -0.0014,7.25555 2.984826,14.46696 8.115276,19.5974 5.130451,5.13045 12.34186,8.1167 19.597412,8.11528 7.255552,-10e-4 14.465799,-2.99048 19.594239,-8.12294 10.425753,0.27004 14.114333,0.601 24.778113,0.57624 l 331.91145,0 c 13.33923,-0.38303 17.55277,0.15005 24.77811,-0.57624 5.12755,5.13643 12.33921,8.12907 19.59695,8.13221 7.25773,0.003 14.47197,-2.98328 19.60396,-8.11529 5.13199,-5.13199 8.11841,-12.34622 8.11527,-19.60396 -0.004,-7.25773 -2.99578,-14.46939 -8.13222,-19.59694 L 309.58738,58.313674 c -5.78704,-5.851095 -14.2861,-8.902037 -22.47318,-8.067299 z m 45.52253,110.060925 19.59204,19.01575 -124.46679,0 18.43952,-18.43952 c 2.29298,0.28731 4.62182,0.28731 6.91482,0 l 73.75804,0 c 1.93385,0.0105 3.86873,-0.18282 5.76237,-0.57531 z m 73.75815,73.75809 19.59204,19.01576 -271.98304,0 18.43953,-18.43952 c 2.29298,0.28731 4.62182,0.28731 6.91481,0 l 221.27429,0 c 1.93385,0.0105 3.86873,-0.18283 5.76237,-0.57532 z M 99.837774,326.83924 c -7.242588,0.75252 -14.130694,4.48246 -18.719114,10.13646 -4.588421,5.65399 -6.820608,13.16237 -6.066188,20.40475 0.754408,7.24239 4.486126,14.12953 10.14132,18.71648 5.655182,4.58694 13.164143,6.81719 20.406338,6.06088 l 92.19761,0 0,18.43954 -92.19761,0 c -0.95952,-0.05 -1.92166,-0.05 -2.88118,0 -0.95952,-0.0499 -1.92165,-0.0499 -2.881176,0 -7.242588,0.75252 -14.130694,4.48246 -18.719114,10.13645 -4.588421,5.654 -6.820608,13.16237 -6.066188,20.40475 0.754408,7.24239 4.486126,14.12953 10.14132,18.71649 5.655182,4.58694 13.164143,6.81718 20.406338,6.06088 l 92.19761,0 0,18.43952 -92.19761,0 c -0.95952,-0.05 -1.92166,-0.05 -2.88118,0 -0.95952,-0.0499 -1.92165,-0.0499 -2.881176,0 -7.242588,0.75252 -14.130694,4.48246 -18.719114,10.13645 -4.588421,5.654 -6.820608,13.16238 -6.066188,20.40476 0.754408,7.24239 4.486126,14.12953 10.14132,18.71648 5.655182,4.58694 13.164143,6.81719 20.406338,6.06088 l 101.41738,0 c 1.35625,-0.0923 2.70567,-0.28478 4.03365,-0.57532 0.19175,0.003 0.38356,0.003 0.57532,0 1.50423,0.38483 3.05721,0.57864 4.60988,0.57532 l 147.51621,0 c 0.57548,0.027 1.15222,0.027 1.72772,0 0.19177,0.002 0.38357,0.002 0.57536,0 2.29299,0.28731 4.62184,0.28731 6.91484,0 l 101.41738,0 c 7.30638,0.10334 14.60911,-2.8312 19.81241,-7.96144 5.20332,-5.13023 8.24083,-12.39073 8.24083,-19.69785 0,-7.30711 -3.03751,-14.56761 -8.24083,-19.69784 -5.2033,-5.13024 -12.50603,-8.06478 -19.81241,-7.96144 l -92.1976,0 0,-18.43952 92.1976,0 c 7.30638,0.10334 14.60911,-2.8312 19.81241,-7.96145 5.20332,-5.13023 8.24083,-12.39073 8.24083,-19.69784 0,-7.30711 -3.03751,-14.56761 -8.24083,-19.69784 -5.2033,-5.13025 -12.50603,-8.06479 -19.81241,-7.96144 l -92.1976,0 0,-18.43954 92.1976,0 c 7.30638,0.10335 14.60911,-2.8312 19.81241,-7.96144 5.20332,-5.13023 8.24083,-12.39073 8.24083,-19.69785 0,-7.30711 -3.03751,-14.5676 -8.24083,-19.69784 -5.2033,-5.13024 -12.50603,-8.06478 -19.81241,-7.96144 l -101.41738,0 c -0.95955,-0.05 -1.9217,-0.05 -2.88124,0 -0.95951,-0.0499 -1.92162,-0.0499 -2.88113,0 -0.19177,-0.003 -0.38359,-0.003 -0.57536,0 -0.95842,-0.0751 -1.92271,-0.0751 -2.88113,0 l -79.52045,0 -67.99576,0 c -0.5755,-0.027 -1.15227,-0.027 -1.72777,0 -0.57551,-0.027 -1.15228,-0.027 -1.72778,0 -0.3907,0.17828 -0.77517,0.3702 -1.15248,0.57532 -0.19176,-0.002 -0.38355,-0.002 -0.57531,0 -1.32798,-0.29054 -2.6774,-0.48301 -4.03365,-0.57532 l -101.41738,0 c -0.95952,-0.05 -1.92165,-0.05 -2.88117,0 -0.95954,-0.0499 -1.92166,-0.0499 -2.881187,0 z m 134.839026,36.87905 49.55622,0 59.35226,0 0.57525,129.07667 -109.48465,0 0,-59.35222 c 0.45199,-2.8575 0.45199,-5.78602 0,-8.64352 0.032,-0.76787 0.032,-1.53707 0,-2.30495 l 0,-58.77598 z"
     id="path4"
     sodipodi:nodetypes="cccsssccccsssccccccccccccccccccccsssccccccsssccccccsssccccccccccsssccccsssccccsssccccccccccccccccccccccccccc" />
</svg>

<svg width="580" height="580" viewBox="0 0 580 580" fill="none" xmlns="http://www.w3.org/2000/svg">
<g clip-path="url(#clip0)">
<path d="M66.275 1.76815C24.94 1.76815 1.70398 23.1391 1.70398 66.8041V516.927C1.70398 557.771 22.599 579.156 63.896 579.156H515.92C557.227 579.156 578.149 558.841 578.149 516.927V66.8041C578.149 24.2031 557.227 1.76815 514.628 1.76815C514.624 1.76815 66.133 1.62515 66.275 1.76815Z" fill="#111111" stroke="#EEEEEE" stroke-width="3.408"/>
<path d="M287.114 50.2462C280.843 50.9244 274.835 53.8249 270.403 58.3135L60.0775 268.639C54.9451 273.768 51.956 280.978 51.9546 288.234C51.9532 295.489 54.9394 302.701 60.0699 307.831C65.2003 312.961 72.4117 315.948 79.6673 315.946C86.9228 315.945 94.1331 312.956 99.2615 307.823C109.687 308.093 113.376 308.424 124.04 308.4H455.951C469.29 308.017 473.504 308.55 480.729 307.823C485.857 312.96 493.068 315.952 500.326 315.956C507.584 315.959 514.798 312.972 519.93 307.84C525.062 302.708 528.049 295.494 528.045 288.236C528.041 280.979 525.05 273.767 519.913 268.639L309.587 58.3135C303.8 52.4624 295.301 49.4115 287.114 50.2462ZM332.637 160.307L352.229 179.323H227.762L246.201 160.883C248.494 161.171 250.823 161.171 253.116 160.883H326.874C328.808 160.894 330.743 160.701 332.637 160.308V160.307ZM406.395 234.065L425.987 253.081H154.004L172.443 234.641C174.736 234.929 177.065 234.929 179.358 234.641H400.632C402.566 234.652 404.501 234.459 406.395 234.066V234.065ZM99.8378 326.839C92.5952 327.592 85.7071 331.322 81.1186 336.976C76.5302 342.63 74.298 350.138 75.0525 357.38C75.8069 364.623 79.5386 371.51 85.1938 376.097C90.849 380.684 98.3579 382.914 105.6 382.158H197.798V400.597H105.6C104.641 400.547 103.678 400.547 102.719 400.597C101.759 400.547 100.797 400.547 99.8378 400.597C92.5952 401.35 85.7071 405.08 81.1186 410.734C76.5302 416.388 74.298 423.896 75.0525 431.138C75.8069 438.381 79.5386 445.268 85.1938 449.855C90.849 454.442 98.3579 456.672 105.6 455.916H197.798V474.355H105.6C104.641 474.305 103.678 474.305 102.719 474.355C101.759 474.305 100.797 474.305 99.8378 474.355C92.5952 475.108 85.7071 478.838 81.1186 484.492C76.5302 490.146 74.298 497.654 75.0525 504.896C75.8069 512.139 79.5386 519.026 85.1938 523.613C90.849 528.2 98.3579 530.43 105.6 529.674H207.018C208.374 529.582 209.723 529.389 211.051 529.099C211.243 529.102 211.435 529.102 211.626 529.099C213.131 529.483 214.684 529.677 216.236 529.674H363.753C364.328 529.701 364.905 529.701 365.48 529.674C365.672 529.676 365.864 529.676 366.056 529.674C368.349 529.961 370.677 529.961 372.97 529.674H474.388C481.694 529.777 488.997 526.843 494.2 521.712C499.404 516.582 502.441 509.322 502.441 502.015C502.441 494.707 499.404 487.447 494.2 482.317C488.997 477.187 481.694 474.252 474.388 474.355H382.19V455.916H474.388C481.694 456.019 488.997 453.085 494.2 447.954C499.404 442.824 502.441 435.564 502.441 428.256C502.441 420.949 499.404 413.689 494.2 408.559C488.997 403.428 481.694 400.494 474.388 400.597H382.19V382.158H474.388C481.694 382.261 488.997 379.326 494.2 374.196C499.404 369.066 502.441 361.806 502.441 354.498C502.441 347.191 499.404 339.931 494.2 334.801C488.997 329.67 481.694 326.736 474.388 326.839H372.97C372.011 326.789 371.049 326.789 370.089 326.839C369.13 326.789 368.168 326.789 367.208 326.839C367.016 326.836 366.824 326.836 366.633 326.839C365.674 326.764 364.71 326.764 363.752 326.839H284.231H216.235C215.66 326.812 215.083 326.812 214.508 326.839C213.932 326.812 213.355 326.812 212.78 326.839C212.389 327.017 212.005 327.209 211.627 327.414C211.436 327.412 211.244 327.412 211.052 327.414C209.724 327.124 208.375 326.931 207.018 326.839H105.601C104.642 326.789 103.679 326.789 102.72 326.839C101.76 326.789 100.798 326.789 99.8387 326.839H99.8378ZM234.677 363.718H284.233H343.585L344.16 492.795H234.676V433.443C235.128 430.585 235.128 427.657 234.676 424.799C234.708 424.031 234.708 423.262 234.676 422.494V363.718H234.677Z" fill="white"/>
</g>
<defs>
<clipPath id="clip0">
<path d="M0 0H580V580H0V0Z" fill="white"/>
</clipPath>
</defs>
</svg>
